package/converter/svg/light/train-subway-tunnel.svg

<svg xmlns="http://www.w3.org/2000/svg" viewBox="0 0 512 512"><!-- Font Awesome Pro 6.0.0-alpha2 by @fontawesome - https://fontawesome.com License - https://fontawesome.com/license (Commercial License) --><path d="M320 128H192C147.818 128 112 163.816 112 208V368C112 400.82 131.809 428.955 160.084 441.291L116.688 484.687C110.438 490.937 110.438 501.062 116.688 507.312C119.812 510.438 123.906 512 128 512S136.188 510.438 139.312 507.312L198.625 448H313.375L372.687 507.312C375.812 510.438 379.906 512 384 512S392.188 510.438 395.312 507.312C401.562 501.062 401.562 490.937 395.312 484.688L351.916 441.291C380.193 428.955 400 400.82 400 368V208C400 163.816 364.184 128 320 128ZM368 368C368 394.467 346.467 416 320 416H192C165.533 416 144 394.467 144 368V288H368V368ZM368 256H144V208C144 181.533 165.533 160 192 160H320C346.467 160 368 181.533 368 208V256ZM200 384C213.256 384 224 373.254 224 360C224 346.744 213.256 336 200 336C186.746 336 176 346.744 176 360C176 373.254 186.746 384 200 384ZM312 384C325.256 384 336 373.254 336 360C336 346.744 325.256 336 312 336C298.746 336 288 346.744 288 360C288 373.254 298.746 384 312 384ZM256 0C114.844 0 0 114.844 0 256V496C0 504.844 7.156 512 16 512S32 504.844 32 496V256C32 132.484 132.5 32 256 32S480 132.484 480 256V496C480 504.844 487.156 512 496 512S512 504.844 512 496V256C512 114.844 397.156 0 256 0Z"/></svg>

<svg xmlns="http://www.w3.org/2000/svg" viewBox="0 0 512 512"><!--! Font Awesome Pro 6.6.0 by @fontawesome - https://fontawesome.com License - https://fontawesome.com/license (Commercial License) Copyright 2024 Fonticons, Inc. --><path d="M32 256C32 132.3 132.3 32 256 32s224 100.3 224 224l0 240c0 8.8 7.2 16 16 16s16-7.2 16-16l0-240C512 114.6 397.4 0 256 0S0 114.6 0 256L0 496c0 8.8 7.2 16 16 16s16-7.2 16-16l0-240zm336-48l0 48-96 0 0-96 48 0c26.5 0 48 21.5 48 48zM240 288l32 0 96 0 0 80c0 26.5-21.5 48-48 48l-128 0c-26.5 0-48-21.5-48-48l0-80 96 0zm0-128l0 96-96 0 0-48c0-26.5 21.5-48 48-48l48 0zm-48-32c-44.2 0-80 35.8-80 80l0 160c0 32.8 19.8 61 48 73.4l-43.3 43.3c-6.2 6.2-6.2 16.4 0 22.6s16.4 6.2 22.6 0L198.6 448l114.7 0 59.3 59.3c6.2 6.2 16.4 6.2 22.6 0s6.2-16.4 0-22.6L352 441.4c28.3-12.3 48-40.5 48-73.4l0-160c0-44.2-35.8-80-80-80l-128 0zm8 256a24 24 0 1 0 0-48 24 24 0 1 0 0 48zm136-24a24 24 0 1 0 -48 0 24 24 0 1 0 48 0z"/></svg>
